src/assets/curso/temas/tema_4/img_6.svg

<svg height="82" viewBox="0 0 82 82" width="82" xmlns="http://www.w3.org/2000/svg"><g fill="#fff" stroke="#ffce79" stroke-linejoin="round" stroke-width="5"><circle cx="41" cy="41" r="36" stroke="none"/><circle cx="41" cy="41" fill="none" r="38.5"/></g><g transform="translate(15.994 -6.374)"><g fill-rule="evenodd"><path d="m9.561 71.906h21.57a2.049 2.049 0 0 1 0 4.1h-21.57a2.049 2.049 0 0 1 0-4.1zm21.571-35.506v35.506h-21.571v-35.506a2.049 2.049 0 1 1 0-4.1h21.57a2.049 2.049 0 1 1 0 4.1z" fill="#d3effb" transform="translate(-6.778 -6.778)"/><path d="m28.463 71.906h21.57a2.049 2.049 0 0 1 0 4.1h-2.844a2.049 2.049 0 0 0 0-4.1h-18.729zm21.57-35.506v35.506h-2.844v-35.506a2.049 2.049 0 0 0 0-4.1h2.844a2.049 2.049 0 0 1 0 4.1z" fill="#b1e4f9" transform="translate(-25.68 -6.778)"/><path d="m33.18 76.307v31.4a2.057 2.057 0 0 1 -2.049 2.052h-21.57a2.057 2.057 0 0 1 -2.049-2.052v-31.4a2.057 2.057 0 0 1 2.049-2.052h21.57a2.057 2.057 0 0 1 2.049 2.052z" fill="#407093" transform="translate(-6.778 -44.634)"/><path d="m225.09 76.307v31.4a2.057 2.057 0 0 1 -2.049 2.052h-2.841a2.057 2.057 0 0 0 2.049-2.052v-31.4a2.057 2.057 0 0 0 -2.049-2.052h2.844a2.057 2.057 0 0 1 2.046 2.052z" fill="#365e7d" transform="translate(-198.687 -44.634)"/><path d="m7.512 164.936h25.669v17.791h-25.669z" fill="#ffe07d" transform="translate(-6.778 -126.457)"/><path d="m241.175 164.936h2.844v17.791h-2.844z" fill="#ffc269" transform="translate(-217.616 -126.457)"/><path d="m183.339 333.112h19.638a2.238 2.238 0 0 0 2.232-2.232v-13.637h-23.532a.572.572 0 0 0 -.57.57v13.067a2.238 2.238 0 0 0 2.232 2.232z" fill="#e4f6ff" transform="translate(-163.416 -263.886)"/><path d="m375.85 333.112h2.85a2.238 2.238 0 0 0 2.232-2.232v-13.637h-2.846v13.637a2.236 2.236 0 0 1 -2.236 2.232z" fill="#d3effb" transform="translate(-339.136 -263.886)"/><path d="m351.132 82.593c0-6.657 3.356-12.051 7.493-12.051s7.49 5.394 7.49 12.051-3.353 12.048-7.49 12.048-7.493-5.395-7.493-12.048z" fill="#e4f6ff" transform="translate(-316.832 -41.284)"/><path d="m414.289 70.727a4.836 4.836 0 0 1 1.323-.186c4.137 0 7.49 5.394 7.49 12.051s-3.353 12.048-7.49 12.048a4.836 4.836 0 0 1 -1.323-.186c3.508-1.005 6.169-5.934 6.169-11.862s-2.658-10.86-6.169-11.865z" fill="#d3effb" transform="translate(-373.82 -41.283)"/><path d="m394.219 121.451a12.666 12.666 0 0 0 1.376 5.987c.313.565 1.1 1.711 1.8 1.844a.523.523 0 0 0 .208 0c.706-.133 1.49-1.279 1.805-1.844a13.734 13.734 0 0 0 0-11.973c-.316-.565-1.1-1.714-1.805-1.847a.523.523 0 0 0 -.208 0c-.7.133-1.49 1.282-1.8 1.847a12.665 12.665 0 0 0 -1.376 5.986z" fill="#d3effb" transform="translate(-355.71 -80.142)"/><path d="m414.289 128.316a2.473 2.473 0 0 0 1.218.966.523.523 0 0 0 .208 0c.706-.133 1.49-1.279 1.805-1.844a13.734 13.734 0 0 0 0-11.973c-.316-.565-1.1-1.714-1.805-1.847a.523.523 0 0 0 -.208 0 2.473 2.473 0 0 0 -1.218.966 7.2 7.2 0 0 1 .587.881 13.709 13.709 0 0 1 0 11.973 7.42 7.42 0 0 1 -.587.878z" fill="#b1e4f9" transform="translate(-373.82 -80.142)"/><path d="m181.107 347.064h24.1v8.858h-24.1z" fill="#e28086" transform="translate(-163.416 -290.794)"/><path d="m46.146 215.389a4.93 4.93 0 1 0 -4.929-4.932 4.941 4.941 0 0 0 4.929 4.932z" fill="#e28086" transform="translate(-37.191 -163.085)"/><path d="m78.552 205.529a4.93 4.93 0 1 1 -1.42 9.653 4.933 4.933 0 0 0 0-9.445 4.909 4.909 0 0 1 1.42-.208z" fill="#dd636e" transform="translate(-69.597 -163.085)"/><path d="m398.7 347.064h2.846v8.858h-2.846z" fill="#dd636e" transform="translate(-359.752 -290.794)"/></g><path d="m20.18 26.254a.732.732 0 0 1 0-1.465h4.173a2.779 2.779 0 0 1 1.877 4.832 2.78 2.78 0 0 1 .906 2.052v20.953h10.8a9.752 9.752 0 0 1 -2.066-2.412 17.09 17.09 0 0 1 -2.306-8.905 17.1 17.1 0 0 1 2.311-8.909c1.487-2.4 3.578-3.877 5.917-3.877a5.881 5.881 0 0 1 3.389 1.119 9.525 9.525 0 0 1 2.7 3.049.733.733 0 0 1 -1.265.739 8.057 8.057 0 0 0 -2.273-2.586 4.456 4.456 0 0 0 -2.553-.856c-1.8 0-3.453 1.218-4.677 3.184a15.626 15.626 0 0 0 -2.082 8.135 15.616 15.616 0 0 0 2.082 8.132c1.224 1.969 2.877 3.184 4.677 3.184s3.453-1.216 4.674-3.184a15.615 15.615 0 0 0 2.082-8.132 18.7 18.7 0 0 0 -.174-2.57 16.771 16.771 0 0 0 -.523-2.42.731.731 0 1 1 1.4-.418 18.247 18.247 0 0 1 .57 2.636 20.235 20.235 0 0 1 .191 2.772 17.116 17.116 0 0 1 -2.3 8.905 7.529 7.529 0 0 1 -5.186 3.827v12.955a2.968 2.968 0 0 1 -2.963 2.966h-36.778a2.779 2.779 0 0 1 -1.878-4.832 2.78 2.78 0 0 1 -.905-2.052v-31.4a2.781 2.781 0 0 1 .905-2.052 2.782 2.782 0 0 1 1.877-4.832h14.08a.732.732 0 0 1 0 1.465h-14.079a1.318 1.318 0 0 0 0 2.636h21.57a1.318 1.318 0 0 0 0-2.636h-4.173zm1.426 36.6a.731.731 0 0 1 0-1.462h12.478a.731.731 0 0 1 0 1.462zm0-2.846a.73.73 0 1 1 0-1.459h16.271a.73.73 0 0 1 0 1.459zm-4.779-9.057a.73.73 0 1 1 0-1.459h6.637a.73.73 0 0 1 0 1.459zm0-2.844a.73.73 0 1 1 0-1.459h6.637a.73.73 0 0 1 0 1.459zm0-2.844a.73.73 0 1 1 0-1.459h6.637a.73.73 0 0 1 0 1.459zm-9.268 6.075a.73.73 0 1 1 -.479 1.379 5.656 5.656 0 1 1 3.752 0 .73.73 0 0 1 -.482-1.379 4.2 4.2 0 1 0 -2.791 0zm20.524 13.056a.732.732 0 0 1 0 1.465h-9.658v1.135a1.5 1.5 0 0 0 1.5 1.5h19.636a1.508 1.508 0 0 0 1.5-1.5v-1.136h-9.661a.732.732 0 0 1 0-1.465h9.658v-7.393h-22.633v7.39h9.658zm-9.658-8.855h22.634v-1.448h-22.634zm20.814-14.23a13.882 13.882 0 0 0 .341 3.091 9.678 9.678 0 0 0 .941 2.542 5.92 5.92 0 0 0 .825 1.133c.421.432.468.432.889 0a5.683 5.683 0 0 0 .825-1.133 9.679 9.679 0 0 0 .94-2.542 14.179 14.179 0 0 0 0-6.178 9.717 9.717 0 0 0 -.942-2.542 5.687 5.687 0 0 0 -.825-1.133c-.421-.429-.468-.429-.889 0a5.92 5.92 0 0 0 -.825 1.133 9.719 9.719 0 0 0 -.941 2.542 13.887 13.887 0 0 0 -.339 3.087zm-1.085 3.414a15.564 15.564 0 0 1 0-6.831 11.19 11.19 0 0 1 1.091-2.927 7.378 7.378 0 0 1 1.055-1.44 2.519 2.519 0 0 1 1.254-.77 1.242 1.242 0 0 1 .474 0 2.519 2.519 0 0 1 1.254.77 7.386 7.386 0 0 1 1.055 1.44 11.19 11.19 0 0 1 1.091 2.927 15.564 15.564 0 0 1 0 6.831 11.189 11.189 0 0 1 -1.091 2.927 7.22 7.22 0 0 1 -1.055 1.44 2.5 2.5 0 0 1 -1.254.77 1.238 1.238 0 0 1 -.474 0 2.5 2.5 0 0 1 -1.254-.77 7.22 7.22 0 0 1 -1.055-1.44 11.189 11.189 0 0 1 -1.091-2.927zm-12.483 7.9v-13.413h-24.206v16.329h15.492v-2.182a.733.733 0 0 1 .734-.731zm-8.714 4.377h-15.492v6.072a1.328 1.328 0 0 0 1.318 1.328h14.174zm0 8.852h-14.174a1.319 1.319 0 0 0 0 2.639h14.584a2.973 2.973 0 0 1 -.41-1.5zm8.714-28.111v-6.068a1.324 1.324 0 0 0 -1.318-1.318h-21.57a1.324 1.324 0 0 0 -1.318 1.318v6.072z"/></g></svg>

<svg xmlns="http://www.w3.org/2000/svg" width="82" height="82" viewBox="0 0 82 82">
  <g id="Grupo_1127722" data-name="Grupo 1127722" transform="translate(-275.993 10126.295)">
    <g id="Grupo_1106486" data-name="Grupo 1106486" transform="translate(265.842 -10136.354)">
      <g id="Elipse_157" data-name="Elipse 157" transform="translate(15.151 15.059)" fill="#fff" stroke="#ffce79" stroke-linejoin="round" stroke-width="5">
        <circle cx="36" cy="36" r="36" stroke="none"/>
        <circle cx="36" cy="36" r="38.5" fill="none"/>
      </g>
    </g>
    <g id="Grupo_1127721" data-name="Grupo 1127721" transform="translate(291.987 -10132.669)">
      <g id="Grupo_1127720" data-name="Grupo 1127720" transform="translate(0.734 25.523)">
        <path id="Trazado_919301" data-name="Trazado 919301" d="M9.561,71.906h21.57a2.049,2.049,0,0,1,0,4.1H9.561a2.049,2.049,0,0,1,0-4.1ZM31.132,36.4V71.906H9.561V36.4a2.049,2.049,0,1,1,0-4.1h21.57a2.049,2.049,0,1,1,0,4.1Z" transform="translate(-7.512 -32.301)" fill="#d3effb" fill-rule="evenodd"/>
        <path id="Trazado_919302" data-name="Trazado 919302" d="M28.463,71.906h21.57a2.049,2.049,0,0,1,0,4.1H47.189a2.049,2.049,0,0,0,0-4.1H28.46ZM50.033,36.4V71.906H47.189V36.4a2.049,2.049,0,0,0,0-4.1h2.844a2.049,2.049,0,0,1,0,4.1Z" transform="translate(-26.414 -32.301)" fill="#b1e4f9" fill-rule="evenodd"/>
        <path id="Trazado_919303" data-name="Trazado 919303" d="M33.18,76.307v31.4a2.057,2.057,0,0,1-2.049,2.052H9.561a2.057,2.057,0,0,1-2.049-2.052v-31.4a2.057,2.057,0,0,1,2.049-2.052h21.57A2.057,2.057,0,0,1,33.18,76.307Z" transform="translate(-7.512 -70.157)" fill="#407093" fill-rule="evenodd"/>
        <path id="Trazado_919304" data-name="Trazado 919304" d="M225.09,76.307v31.4a2.057,2.057,0,0,1-2.049,2.052H220.2a2.057,2.057,0,0,0,2.049-2.052v-31.4a2.057,2.057,0,0,0-2.049-2.052h2.844A2.057,2.057,0,0,1,225.09,76.307Z" transform="translate(-199.421 -70.157)" fill="#365e7d" fill-rule="evenodd"/>
        <path id="Trazado_919305" data-name="Trazado 919305" d="M7.512,164.936H33.181v17.791H7.512Z" transform="translate(-7.512 -151.98)" fill="#ffe07d" fill-rule="evenodd"/>
        <path id="Trazado_919306" data-name="Trazado 919306" d="M241.175,164.936h2.844v17.791h-2.844Z" transform="translate(-218.35 -151.98)" fill="#ffc269" fill-rule="evenodd"/>
        <path id="Trazado_919307" data-name="Trazado 919307" d="M183.339,333.112h19.638a2.238,2.238,0,0,0,2.232-2.232V317.243H181.677a.572.572,0,0,0-.57.57V330.88A2.238,2.238,0,0,0,183.339,333.112Z" transform="translate(-164.15 -289.409)" fill="#e4f6ff" fill-rule="evenodd"/>
        <path id="Trazado_919308" data-name="Trazado 919308" d="M375.85,333.112H378.7a2.238,2.238,0,0,0,2.232-2.232V317.243h-2.846V330.88A2.236,2.236,0,0,1,375.85,333.112Z" transform="translate(-339.87 -289.409)" fill="#d3effb" fill-rule="evenodd"/>
        <path id="Trazado_919309" data-name="Trazado 919309" d="M351.132,82.593c0-6.657,3.356-12.051,7.493-12.051s7.49,5.394,7.49,12.051-3.353,12.048-7.49,12.048S351.132,89.246,351.132,82.593Z" transform="translate(-317.566 -66.807)" fill="#e4f6ff" fill-rule="evenodd"/>
        <path id="Trazado_919310" data-name="Trazado 919310" d="M414.289,70.727a4.836,4.836,0,0,1,1.323-.186c4.137,0,7.49,5.394,7.49,12.051s-3.353,12.048-7.49,12.048a4.836,4.836,0,0,1-1.323-.186c3.508-1.005,6.169-5.934,6.169-11.862S417.8,71.732,414.289,70.727Z" transform="translate(-374.554 -66.806)" fill="#d3effb" fill-rule="evenodd"/>
        <path id="Trazado_919311" data-name="Trazado 919311" d="M394.219,121.451a12.666,12.666,0,0,0,1.376,5.987c.313.565,1.1,1.711,1.8,1.844a.523.523,0,0,0,.208,0c.706-.133,1.49-1.279,1.805-1.844a13.734,13.734,0,0,0,0-11.973c-.316-.565-1.1-1.714-1.805-1.847a.523.523,0,0,0-.208,0c-.7.133-1.49,1.282-1.8,1.847A12.665,12.665,0,0,0,394.219,121.451Z" transform="translate(-356.444 -105.665)" fill="#d3effb" fill-rule="evenodd"/>
        <path id="Trazado_919312" data-name="Trazado 919312" d="M414.289,128.316a2.473,2.473,0,0,0,1.218.966.523.523,0,0,0,.208,0c.706-.133,1.49-1.279,1.805-1.844a13.734,13.734,0,0,0,0-11.973c-.316-.565-1.1-1.714-1.805-1.847a.523.523,0,0,0-.208,0,2.473,2.473,0,0,0-1.218.966,7.2,7.2,0,0,1,.587.881,13.709,13.709,0,0,1,0,11.973A7.42,7.42,0,0,1,414.289,128.316Z" transform="translate(-374.554 -105.665)" fill="#b1e4f9" fill-rule="evenodd"/>
        <path id="Trazado_919313" data-name="Trazado 919313" d="M181.107,347.064h24.1v8.858h-24.1Z" transform="translate(-164.15 -316.317)" fill="#e28086" fill-rule="evenodd"/>
        <path id="Trazado_919314" data-name="Trazado 919314" d="M46.146,215.389a4.93,4.93,0,1,0-4.929-4.932,4.941,4.941,0,0,0,4.929,4.932Z" transform="translate(-37.925 -188.608)" fill="#e28086" fill-rule="evenodd"/>
        <g id="Grupo_1127719" data-name="Grupo 1127719" transform="translate(6.801 16.921)">
          <path id="Trazado_919315" data-name="Trazado 919315" d="M78.552,205.529a4.93,4.93,0,1,1-1.42,9.653,4.933,4.933,0,0,0,0-9.445A4.909,4.909,0,0,1,78.552,205.529Z" transform="translate(-77.132 -205.529)" fill="#dd636e" fill-rule="evenodd"/>
          <path id="Trazado_919316" data-name="Trazado 919316" d="M398.7,347.064h2.846v8.858H398.7Z" transform="translate(-367.287 -333.238)" fill="#dd636e" fill-rule="evenodd"/>
        </g>
      </g>
      <path id="Trazado_919317" data-name="Trazado 919317" d="M20.18,26.254a.732.732,0,0,1,0-1.465h4.173a2.779,2.779,0,0,1,1.877,4.832,2.78,2.78,0,0,1,.906,2.052V52.626h10.8a9.752,9.752,0,0,1-2.066-2.412,17.09,17.09,0,0,1-2.306-8.905A17.1,17.1,0,0,1,35.875,32.4c1.487-2.4,3.578-3.877,5.917-3.877a5.881,5.881,0,0,1,3.389,1.119,9.525,9.525,0,0,1,2.7,3.049.733.733,0,0,1-1.265.739,8.057,8.057,0,0,0-2.273-2.586,4.456,4.456,0,0,0-2.553-.856c-1.8,0-3.453,1.218-4.677,3.184a15.626,15.626,0,0,0-2.082,8.135,15.616,15.616,0,0,0,2.082,8.132c1.224,1.969,2.877,3.184,4.677,3.184s3.453-1.216,4.674-3.184a15.615,15.615,0,0,0,2.082-8.132,18.7,18.7,0,0,0-.174-2.57,16.771,16.771,0,0,0-.523-2.42.731.731,0,1,1,1.4-.418,18.247,18.247,0,0,1,.57,2.636,20.235,20.235,0,0,1,.191,2.772,17.116,17.116,0,0,1-2.3,8.905,7.529,7.529,0,0,1-5.186,3.827V66.994a2.968,2.968,0,0,1-2.963,2.966H2.783A2.779,2.779,0,0,1,.905,65.128,2.78,2.78,0,0,1,0,63.076v-31.4a2.781,2.781,0,0,1,.905-2.052,2.782,2.782,0,0,1,1.877-4.832h14.08a.732.732,0,0,1,0,1.465H2.783a1.318,1.318,0,0,0,0,2.636h21.57a1.318,1.318,0,0,0,0-2.636H20.18Zm1.426,36.6a.731.731,0,0,1,0-1.462H34.084a.731.731,0,0,1,0,1.462Zm0-2.846a.73.73,0,1,1,0-1.459H37.877a.73.73,0,0,1,0,1.459Zm-4.779-9.057a.73.73,0,1,1,0-1.459h6.637a.73.73,0,0,1,0,1.459Zm0-2.844a.73.73,0,1,1,0-1.459h6.637a.73.73,0,0,1,0,1.459Zm0-2.844a.73.73,0,1,1,0-1.459h6.637a.73.73,0,0,1,0,1.459ZM7.559,51.338a.73.73,0,1,1-.479,1.379,5.656,5.656,0,1,1,3.752,0,.73.73,0,0,1-.482-1.379,4.2,4.2,0,1,0-2.791,0ZM28.083,64.394a.732.732,0,0,1,0,1.465H18.425v1.135a1.5,1.5,0,0,0,1.5,1.5H39.561a1.508,1.508,0,0,0,1.5-1.5V65.858H31.4a.732.732,0,0,1,0-1.465h9.658V57H18.425v7.39h9.658Zm-9.658-8.855H41.059V54.091H18.425Zm20.814-14.23A13.882,13.882,0,0,0,39.58,44.4a9.678,9.678,0,0,0,.941,2.542,5.92,5.92,0,0,0,.825,1.133c.421.432.468.432.889,0a5.683,5.683,0,0,0,.825-1.133A9.679,9.679,0,0,0,44,44.4a14.179,14.179,0,0,0,0-6.178,9.717,9.717,0,0,0-.942-2.542,5.687,5.687,0,0,0-.825-1.133c-.421-.429-.468-.429-.889,0a5.92,5.92,0,0,0-.825,1.133,9.719,9.719,0,0,0-.941,2.542A13.887,13.887,0,0,0,39.239,41.309Zm-1.085,3.414a15.564,15.564,0,0,1,0-6.831,11.19,11.19,0,0,1,1.091-2.927,7.378,7.378,0,0,1,1.055-1.44,2.519,2.519,0,0,1,1.254-.77,1.242,1.242,0,0,1,.474,0,2.519,2.519,0,0,1,1.254.77,7.386,7.386,0,0,1,1.055,1.44,11.19,11.19,0,0,1,1.091,2.927,15.564,15.564,0,0,1,0,6.831,11.189,11.189,0,0,1-1.091,2.927,7.22,7.22,0,0,1-1.055,1.44,2.5,2.5,0,0,1-1.254.77,1.238,1.238,0,0,1-.474,0,2.5,2.5,0,0,1-1.254-.77,7.22,7.22,0,0,1-1.055-1.44A11.189,11.189,0,0,1,38.154,44.723Zm-12.483,7.9V39.21H1.465V55.539H16.957V53.357a.733.733,0,0,1,.734-.731ZM16.957,57H1.465v6.072A1.328,1.328,0,0,0,2.783,64.4H16.957Zm0,8.852H2.783a1.319,1.319,0,0,0,0,2.639H17.367a2.973,2.973,0,0,1-.41-1.5Zm8.714-28.111V31.673a1.324,1.324,0,0,0-1.318-1.318H2.783a1.324,1.324,0,0,0-1.318,1.318v6.072Z"/>
    </g>
  </g>
</svg>
